X: 1134
T: Four Bare Legs Together
M: 9/8
L: 1/8
R: slip jig
K: F Major
A2 B c2 A BAG | F2 G A2 G FED | BAB cBc d3 | D2 G G2 A BAG |
A2 B cBA BAG | FGA ABG FED | B2 B cBc d3 | DGG G2 A BAG ||
F2 f f2 g fed | c2 A A2 G FED | d2 g gag f2 e | d2 g g2 a bag |
f2 f fgf e2 d | cAA ABG FED | B2 B cBc d2 D | D2 G G2 A B2 G ||
